;FLAVOR:Marlin
;TIME:31419
;Filament used: 19.3359m
;Layer height: 0.2
;MINX:50.682
;MINY:49.162
;MINZ:0.2
;MAXX:168.454
;MAXY:160.096
;MAXZ:95
;Generated with Cura_SteamEngine 4.9.1
M140 S50
M105
M190 S50
M104 S200
M105
M109 S200
M82 ;absolute extrusion mode
; Ender 3 Custom Start G-code
G92 E0 ; Reset Extruder
G28 ; Home all axes
G1 Z2.0 F3000 ; Move Z Axis up little to prevent scratching of Heat Bed
G1 X0.1 Y20 Z0.3 F5000.0 ; Move to start position
G1 X0.1 Y200.0 Z0.3 F1500.0 E15 ; Draw the first line
G1 X0.4 Y200.0 Z0.3 F5000.0 ; Move to side a little
G1 X0.4 Y20 Z0.3 F1500.0 E30 ; Draw the second line
G92 E0 ; Reset Extruder
G1 Z2.0 F3000 ; Move Z Axis up little to prevent scratching of Heat Bed
G1 X5 Y20 Z0.3 F5000.0 ; Move over to prevent blob squish
G92 E0
G92 E0
G1 F2700 E-5
;LAYER_COUNT:475
;LAYER:0
M107
G0 F6000 X53.89 Y52.417 Z0.2
;TYPE:SKIRT
G1 F2700 E0
G1 F1200 X54.579 Y51.78 E0.03121
G1 X55.319 Y51.205 E0.06238
G1 X56.106 Y50.695 E0.09357
G1 X56.934 Y50.253 E0.12479
G1 X57.796 Y49.884 E0.15597
G1 X58.686 Y49.59 E0.18715
G1 X59.599 Y49.372 E0.21837
G1 X60.526 Y49.233 E0.24955
G1 X61.383 Y49.175 E0.27812
G1 X61.703 Y49.166 E0.28876
G1 X62.012 Y49.162 E0.29904
G1 X98.475 Y49.162 E1.51181
G1 X99.359 Y49.174 E1.54121
G1 X100.278 Y49.227 E1.57183
G1 X100.812 Y49.28 E1.58967
G1 X103.456 Y49.504 E1.67793
G1 X105.916 Y49.644 E1.75988
G1 X108.473 Y49.716 E1.84496
G1 X110.96 Y49.716 E1.92768
G1 X113.519 Y49.644 E2.01283
G1 X115.991 Y49.504 E2.09518
G1 X119.021 Y49.245 E2.19632
G1 X119.621 Y49.211 E2.21631
G1 X119.954 Y49.201 E2.22739
G1 X120.284 Y49.196 E2.23837
G1 X156.889 Y49.197 E3.45586
G1 X157.587 Y49.206 E3.47907
G1 X158.523 Y49.258 E3.51025
G1 X159.452 Y49.39 E3.54146
G1 X160.366 Y49.6 E3.57265
G1 X161.259 Y49.887 E3.60385
G1 X162.124 Y50.25 E3.63505
G1 X162.955 Y50.684 E3.66623
G1 X163.746 Y51.188 E3.69743
G1 X164.491 Y51.758 E3.72863
G1 X165.185 Y52.389 E3.75983
G1 X165.822 Y53.076 E3.79099
G1 X166.399 Y53.816 E3.8222
G1 X166.911 Y54.602 E3.8534
G1 X167.354 Y55.429 E3.8846
G1 X167.725 Y56.29 E3.91578
G1 X168.021 Y57.18 E3.94698
G1 X168.24 Y58.092 E3.97817
G1 X168.381 Y59.019 E4.00936
G1 X168.441 Y59.897 E4.03863
G1 X168.45 Y60.218 E4.04931
G1 X168.454 Y60.526 E4.05956
G1 X168.453 Y148.496 E6.98545
G1 X168.444 Y149.223 E7.00963
G1 X168.393 Y150.16 E7.04084
G1 X168.261 Y151.088 E7.07202
G1 X168.052 Y152.002 E7.1032
G1 X167.765 Y152.895 E7.1344
G1 X167.403 Y153.761 E7.16562
G1 X166.969 Y154.592 E7.1968
G1 X166.465 Y155.383 E7.228
G1 X165.896 Y156.128 E7.25918
G1 X165.265 Y156.823 E7.2904
G1 X164.578 Y157.461 E7.32158
G1 X163.839 Y158.038 E7.35277
G1 X163.053 Y158.55 E7.38396
G1 X162.227 Y158.993 E7.41514
G1 X161.365 Y159.365 E7.44637
G1 X160.476 Y159.661 E7.47753
G1 X159.564 Y159.881 E7.50873
G1 X158.637 Y160.022 E7.53992
G1 X157.753 Y160.083 E7.56939
G1 X157.432 Y160.092 E7.58007
G1 X157.124 Y160.096 E7.59032
G1 X120.492 Y160.095 E8.8087
G1 X119.776 Y160.084 E8.83252
G1 X118.856 Y160.031 E8.86317
G1 X118.316 Y159.977 E8.88122
G1 X115.68 Y159.754 E8.96921
G1 X113.221 Y159.614 E9.05113
G1 X110.663 Y159.542 E9.13624
G1 X108.175 Y159.542 E9.21899
G1 X105.617 Y159.614 E9.3041
G1 X103.133 Y159.755 E9.38685
G1 X100.104 Y160.013 E9.48796
G1 X99.481 Y160.049 E9.50872
G1 X99.162 Y160.058 E9.51933
G1 X98.852 Y160.062 E9.52965
G1 X62.247 Y160.061 E10.74713
G1 X61.549 Y160.052 E10.77035
G1 X60.613 Y160 E10.80153
G1 X59.684 Y159.868 E10.83274
G1 X58.77 Y159.658 E10.86393
G1 X57.877 Y159.371 E10.89513
G1 X57.012 Y159.008 E10.92633
G1 X56.181 Y158.574 E10.95751
G1 X55.39 Y158.07 E10.98871
G1 X54.645 Y157.5 E11.01991
G1 X53.951 Y156.869 E11.0511
G1 X53.314 Y156.182 E11.08226
G1 X52.737 Y155.442 E11.11347
G1 X52.225 Y154.656 E11.14467
G1 X51.782 Y153.829 E11.17588
G1 X51.411 Y152.968 E11.20706
G1 X51.115 Y152.078 E11.23826
G1 X50.896 Y151.166 E11.26945
G1 X50.755 Y150.239 E11.30064
G1 X50.695 Y149.35 E11.33027
G1 X50.686 Y149.017 E11.34135
G1 X50.682 Y148.72 E11.35123
G1 X50.683 Y60.688 E14.27919
G1 X50.693 Y60.009 E14.30177
G1 X50.747 Y59.073 E14.33296
G1 X50.88 Y58.144 E14.36417
G1 X51.092 Y57.231 E14.39535
G1 X51.381 Y56.338 E14.42656
G1 X51.745 Y55.474 E14.45775
G1 X52.181 Y54.644 E14.48893
G1 X52.687 Y53.854 E14.52013
G1 X53.258 Y53.11 E14.55133
G1 X53.89 Y52.417 E14.58252
G0 F6000 X54.282 Y52.592
G1 F1200 X54.967 Y51.977 E14.61314
G1 X55.704 Y51.425 E14.64376
G1 X56.485 Y50.938 E14.67438
G1 X57.306 Y50.521 E14.705
G1 X58.16 Y50.177 E14.73563
G1 X59.04 Y49.908 E14.76623
G1 X59.941 Y49.717 E14.79687
G1 X60.855 Y49.604 E14.8275
G1 X61.394 Y49.575 E14.84545
G1 X61.714 Y49.566 E14.8561
G1 X62.012 Y49.562 E14.86601
G1 X98.475 Y49.562 E16.07877
G1 X99.353 Y49.574 E16.10798
G1 X100.238 Y49.625 E16.13746
G1 X100.806 Y49.681 E16.15645
G1 X103.4 Y49.901 E16.24303
G1 X105.916 Y50.044 E16.32685
G1 X108.462 Y50.116 E16.41156
G1 X110.971 Y50.116 E16.49501
G1 X113.517 Y50.044 E16.57973
G1 X116.014 Y49.902 E16.66291
G1 X119.054 Y49.644 E16.76439
G1 X119.633 Y49.611 E16.78368
G1 X119.966 Y49.601 E16.79476
G1 X120.284 Y49.596 E16.80534
G1 X156.884 Y49.597 E18.02266
G1 X157.582 Y49.606 E18.04587
G1 X158.501 Y49.658 E18.07649
G1 X159.412 Y49.789 E18.1071
G1 X160.308 Y49.999 E18.13771
G1 X161.183 Y50.286 E18.16834
G1 X162.03 Y50.648 E18.19897
G1 X162.842 Y51.082 E18.2296
G1 X163.613 Y51.584 E18.2602
G1 X164.338 Y52.152 E18.29083
G1 X165.011 Y52.781 E18.32147
G1 X165.626 Y53.465 E18.35206
G1 X166.18 Y54.2 E18.38267
G1 X166.668 Y54.981 E18.4133
G1 X167.087 Y55.801 E18.44393
G1 X167.433 Y56.654 E18.47455
G1 X167.703 Y57.534 E18.50516
G1 X167.896 Y58.435 E18.53581
G1 X168.01 Y59.348 E18.56641
G1 X168.041 Y59.908 E18.58507
G1 X168.05 Y60.229 E18.59575
G1 X168.054 Y60.526 E18.60563
G1 X168.053 Y148.491 E21.53135
G1 X168.044 Y149.218 E21.55554
G1 X167.993 Y150.137 E21.58615
G1 X167.862 Y151.049 E21.61679
G1 X167.652 Y151.945 E21.6474
G1 X167.366 Y152.82 E21.67802
G1 X167.005 Y153.667 E21.70864
G1 X166.571 Y154.479 E21.73927
G1 X166.069 Y155.251 E21.76989
G1 X165.501 Y155.976 E21.80053
G1 X164.873 Y156.649 E21.83114
G1 X164.189 Y157.265 E21.86176
G1 X163.454 Y157.819 E21.89237
G1 X162.674 Y158.308 E21.92299
G1 X161.854 Y158.727 E21.95362
G1 X161.001 Y159.073 E21.98423
G1 X160.121 Y159.344 E22.01486
G1 X159.221 Y159.537 E22.04547
G1 X158.307 Y159.652 E22.07611
G1 X157.742 Y159.683 E22.09493
G1 X157.421 Y159.692 E22.10562
G1 X157.124 Y159.696 E22.11549
G1 X120.498 Y159.695 E23.33368
G1 X119.782 Y159.684 E23.3575
G1 X118.895 Y159.633 E23.38705
G1 X118.316 Y159.575 E23.4064
G1 X115.738 Y159.357 E23.49245
G1 X113.219 Y159.214 E23.57637
G1 X110.674 Y159.142 E23.66105
G1 X108.164 Y159.142 E23.74453
G1 X105.619 Y159.214 E23.82921
G1 X103.11 Y159.356 E23.9128
G1 X100.07 Y159.615 E24.01427
G1 X99.47 Y159.649 E24.03426
G1 X99.151 Y159.658 E24.04488
G1 X98.852 Y159.662 E24.05482
G1 X62.252 Y159.661 E25.27214
G1 X61.554 Y159.652 E25.29536
G1 X60.635 Y159.6 E25.32598
G1 X59.724 Y159.469 E25.35659
G1 X58.828 Y159.259 E25.3872
G1 X57.953 Y158.972 E25.41782
G1 X57.106 Y158.61 E25.44846
G1 X56.294 Y158.176 E25.47908
G1 X55.523 Y157.674 E25.50968
G1 X54.798 Y157.106 E25.54032
G1 X54.125 Y156.477 E25.57096
G1 X53.51 Y155.793 E25.60155
G1 X52.956 Y155.058 E25.63216
G1 X52.468 Y154.277 E25.66279
G1 X52.049 Y153.457 E25.69342
G1 X51.703 Y152.604 E25.72404
G1 X51.433 Y151.724 E25.75465
G1 X51.24 Y150.823 E25.7853
G1 X51.126 Y149.91 E25.8159
G1 X51.095 Y149.339 E25.83492
G1 X51.086 Y149.006 E25.846
G1 X51.082 Y148.72 E25.85551
G1 X51.083 Y60.694 E28.78327
G1 X51.093 Y60.015 E28.80586
G1 X51.147 Y59.096 E28.83647
G1 X51.28 Y58.185 E28.8671
G1 X51.491 Y57.289 E28.89771
G1 X51.78 Y56.415 E28.92833
G1 X52.143 Y55.569 E28.95895
G1 X52.579 Y54.757 E28.9896
G1 X53.083 Y53.987 E29.02021
G1 X53.652 Y53.263 E29.05084
G1 X54.282 Y52.592 E29.08145
G0 F6000 X54.673 Y52.77
G1 F1200 X55.355 Y52.178 E29.11149
G1 X56.087 Y51.649 E29.14153
G1 X56.862 Y51.187 E29.17154
G1 X57.676 Y50.795 E29.20159
G1 X58.521 Y50.476 E29.23163
G1 X59.391 Y50.234 E29.26166
G1 X60.279 Y50.069 E29.2917
G1 X61.405 Y49.975 E29.32928
G1 X61.725 Y49.966 E29.33993
G1 X62.012 Y49.962 E29.34948
G1 X98.475 Y49.962 E30.56224
G1 X99.347 Y49.974 E30.59125
G1 X100.199 Y50.023 E30.61963
G1 X100.738 Y50.077 E30.63765
G1 X103.377 Y50.3 E30.72573
G1 X105.918 Y50.444 E30.81038
G1 X108.451 Y50.516 E30.89467
G1 X110.983 Y50.516 E30.97888
G1 X113.516 Y50.444 E31.06316
G1 X116.07 Y50.3 E31.14824
G1 X119.088 Y50.043 E31.24899
G1 X119.645 Y50.011 E31.26754
G1 X119.978 Y50.001 E31.27862
G1 X120.284 Y49.996 E31.2888
G1 X156.879 Y49.997 E32.50596
G1 X157.577 Y50.006 E32.52917
G1 X158.478 Y50.057 E32.55919
G1 X159.372 Y50.189 E32.58925
G1 X160.25 Y50.398 E32.61926
G1 X161.107 Y50.685 E32.64932
G1 X161.934 Y51.046 E32.67934
G1 X162.727 Y51.479 E32.70939
G1 X163.478 Y51.98 E32.73941
G1 X164.182 Y52.546 E32.76946
G1 X164.833 Y53.172 E32.7995
G1 X165.426 Y53.853 E32.82953
G1 X165.956 Y54.584 E32.85956
G1 X166.42 Y55.359 E32.88961
G1 X166.814 Y56.172 E32.91965
G1 X167.134 Y57.016 E32.94968
G1 X167.378 Y57.886 E32.97973
G1 X167.544 Y58.774 E33.00978
G1 X167.641 Y59.919 E33.048
G1 X167.65 Y60.24 E33.05868
G1 X167.654 Y60.526 E33.06819
G1 X167.653 Y148.486 E35.99375
G1 X167.644 Y149.213 E36.01793
G1 X167.593 Y150.115 E36.04798
G1 X167.462 Y151.009 E36.07803
G1 X167.253 Y151.887 E36.10805
G1 X166.967 Y152.744 E36.1381
G1 X166.606 Y153.572 E36.16814
G1 X166.174 Y154.364 E36.19815
G1 X165.673 Y155.116 E36.2282
G1 X165.107 Y155.82 E36.25825
G1 X164.482 Y156.471 E36.28826
G1 X163.801 Y157.065 E36.31832
G1 X163.07 Y157.596 E36.34837
G1 X162.296 Y158.06 E36.37839
G1 X161.483 Y158.454 E36.40843
G1 X160.639 Y158.774 E36.43846
G1 X159.769 Y159.019 E36.46852
G1 X158.882 Y159.185 E36.49853
G1 X157.731 Y159.283 E36.53695
G1 X157.41 Y159.292 E36.54763
G1 X157.124 Y159.296 E36.55715
G1 X120.504 Y159.295 E37.77513
G1 X119.788 Y159.284 E37.79895
G1 X118.935 Y159.235 E37.82737
G1 X118.39 Y159.181 E37.84558
G1 X115.759 Y158.958 E37.9334
G1 X113.219 Y158.814 E38.01802
G1 X110.685 Y158.742 E38.10234
G1 X108.153 Y158.742 E38.18655
G1 X105.619 Y158.814 E38.27086
G1 X103.055 Y158.959 E38.35628
G1 X100.036 Y159.216 E38.45706
G1 X99.459 Y159.249 E38.47628
G1 X99.14 Y159.258 E38.48689
G1 X98.852 Y159.262 E38.49647
G1 X62.257 Y159.261 E39.71363
G1 X61.559 Y159.252 E39.73684
G1 X60.658 Y159.201 E39.76686
G1 X59.764 Y159.069 E39.79692
G1 X58.886 Y158.86 E39.82693
G1 X58.029 Y158.573 E39.85699
G1 X57.202 Y158.212 E39.88701
G1 X56.409 Y157.779 E39.91706
G1 X55.658 Y157.278 E39.94708
G1 X54.954 Y156.712 E39.97713
G1 X54.303 Y156.086 E40.00717
G1 X53.71 Y155.405 E40.0372
G1 X53.18 Y154.674 E40.06723
G1 X52.716 Y153.899 E40.09728
G1 X52.322 Y153.086 E40.12732
G1 X52.002 Y152.242 E40.15735
G1 X51.758 Y151.372 E40.1874
G1 X51.592 Y150.484 E40.21745
G1 X51.495 Y149.329 E40.256
G1 X51.486 Y148.996 E40.26708
G1 X51.482 Y148.72 E40.27626
G1 X51.483 Y60.7 E43.20381
G1 X51.493 Y60.021 E43.2264
G1 X51.546 Y59.119 E43.25645
G1 X51.679 Y58.226 E43.28648
G1 X51.89 Y57.348 E43.31652
G1 X52.179 Y56.492 E43.34656
G1 X52.541 Y55.665 E43.37659
G1 X52.976 Y54.873 E43.40664
G1 X53.478 Y54.123 E43.43666
G1 X54.046 Y53.42 E43.46672
G1 X54.673 Y52.77 E43.49676
G1 F2700 E38.49676
;MESH:2U_Rack_Ears.FCStd(1)
G0 F6000 X72.402 Y64.132
G0 X71.608 Y62.896
G0 X70.345 Y64.874
G0 X70.029 Y65.951
G0 X70.029 Y67.073
G0 X70.345 Y68.15
G0 X70.951 Y69.094
G0 X71.801 Y69.83
G0 X72.821 Y70.296
G0 X73.695 Y70.421
G0 X88.975 Y70.612
;TYPE:WALL-INNER
G1 F2700 E43.49676
G1 F1200 X90.089 Y70.452 E43.53419
G1 X91.153 Y69.967 E43.57308
G1 X92.035 Y69.201 E43.61194
G1 X92.668 Y68.218 E43.65082
G1 X92.997 Y67.097 E43.68968
G1 X92.997 Y65.927 E43.7286
G1 X92.668 Y64.806 E43.76745
G1 X92.035 Y63.823 E43.80634
G1 X91.153 Y63.058 E43.84517
G1 X90.089 Y62.572 E43.88408
G1 X88.975 Y62.412 E43.92151
G1 X73.889 Y62.412 E44.42327
G1 X72.775 Y62.572 E44.46071
G1 X71.713 Y63.058 E44.49955
G1 X70.829 Y63.823 E44.53843
G1 X70.197 Y64.806 E44.5773
G1 X69.868 Y65.927 E44.61616
G1 X69.868 Y67.097 E44.65507
G1 X70.197 Y68.218 E44.69393
G1 X70.829 Y69.201 E44.7328
G1 X71.713 Y69.967 E44.7717
G1 X72.775 Y70.452 E44.81054
G1 X73.889 Y70.612 E44.84797
G1 X88.975 Y70.612 E45.34973
G0 F6000 X88.946 Y70.212
;TYPE:WALL-OUTER
G1 F1200 X89.975 Y70.064 E45.38431
G1 X90.934 Y69.627 E45.41936
G1 X91.73 Y68.936 E45.45442
G1 X92.3 Y68.05 E45.48946
G1 X92.597 Y67.039 E45.52451
G1 X92.597 Y65.985 E45.55956
G1 X92.3 Y64.974 E45.59461
G1 X91.73 Y64.088 E45.62965
G1 X90.934 Y63.398 E45.66469
G1 X89.975 Y62.96 E45.69975
G1 X88.946 Y62.812 E45.73433
G1 X73.918 Y62.812 E46.23416
G1 X72.889 Y62.96 E46.26874
G1 X71.931 Y63.398 E46.30377
G1 X71.134 Y64.088 E46.33884
G1 X70.565 Y64.974 E46.37386
G1 X70.268 Y65.985 E46.40891
G1 X70.268 Y67.039 E46.44396
G1 X70.565 Y68.05 E46.47901
G1 X71.134 Y68.936 E46.51403
G1 X71.931 Y69.627 E46.54912
G1 X72.889 Y70.064 E46.58414
G1 X73.918 Y70.212 E46.61871
G1 X88.946 Y70.212 E47.11855
G0 F6000 X88.977 Y70.65
G1 F2700 E42.11855
G0 F6000 X88.883 Y69.348
G0 X88.883 Y79.551
G0 X88.989 Y78.096
G0 X91.064 Y79.07
G0 X91.913 Y79.805
G0 X92.52 Y80.749
G0 X92.836 Y81.826
G0 X92.836 Y82.948
G0 X92.52 Y84.025
G0 X91.913 Y84.969
G0 X91.226 Y85.564
G0 X90.089 Y86.327
;TYPE:WALL-INNER
G1 F2700 E47.11855
G1 F1200 X91.153 Y85.842 E47.15744
G1 X92.035 Y85.076 E47.19629
G1 X92.668 Y84.093 E47.23518
G1 X92.997 Y82.972 E47.27404
G1 X92.997 Y81.802 E47.31295
G1 X92.668 Y80.681 E47.35181
G1 X92.035 Y79.698 E47.3907
G1 X91.153 Y78.933 E47.42953
G1 X90.089 Y78.447 E47.46843
G1 X88.975 Y78.287 E47.50587
G1 X73.889 Y78.287 E48.00763
G1 X72.775 Y78.447 E48.04506
G1 X71.713 Y78.933 E48.08391
G1 X70.829 Y79.698 E48.12279
G1 X70.197 Y80.681 E48.16166
G1 X69.868 Y81.802 E48.20052
G1 X69.868 Y82.972 E48.23943
G1 X70.197 Y84.093 E48.27829
G1 X70.829 Y85.076 E48.31716
G1 X71.713 Y85.842 E48.35606
G1 X72.775 Y86.327 E48.39489
G1 X73.889 Y86.487 E48.43232
G1 X88.975 Y86.487 E48.93409
G1 X90.089 Y86.327 E48.97152
G0 F6000 X89.975 Y85.939
;TYPE:WALL-OUTER
G1 F1200 X90.934 Y85.502 E49.00657
G1 X91.73 Y84.811 E49.04163
G1 X92.3 Y83.925 E49.07667
G1 X92.597 Y82.914 E49.11172
G1 X92.597 Y81.86 E49.14677
G1 X92.3 Y80.849 E49.18182
G1 X91.73 Y79.963 E49.21686
G1 X90.934 Y79.273 E49.2519
G1 X89.975 Y78.835 E49.28696
G1 X88.946 Y78.687 E49.32154
G1 X73.918 Y78.687 E49.82137
G1 X72.889 Y78.835 E49.85595
G1 X71.931 Y79.273 E49.89098
G1 X71.134 Y79.963 E49.92605
G1 X70.565 Y80.849 E49.96107
G1 X70.268 Y81.86 E49.99612
G1 X70.268 Y82.914 E50.03117
G1 X70.565 Y83.925 E50.06622
G1 X71.134 Y84.811 E50.10124
G1 X71.931 Y85.502 E50.13633
G1 X72.889 Y85.939 E50.17135
G1 X73.918 Y86.087 E50.20592
G1 X88.946 Y86.087 E50.70576
G1 X89.975 Y85.939 E50.74033
G0 F6000 X90.098 Y86.361
G1 F2700 E45.74033
G0 F6000 X88.989 Y86.678
G0 X88.883 Y85.223
G0 X88.883 Y95.426
G0 X88.989 Y93.971
G0 X91.064 Y94.945
G0 X91.913 Y95.68
G0 X92.52 Y96.624
G0 X92.836 Y97.701
G0 X92.836 Y98.823
G0 X92.52 Y99.9
G0 X91.913 Y100.844
G0 X91.226 Y101.439
G0 X90.089 Y102.202
;TYPE:WALL-INNER
G1 F2700 E50.74033
G1 F1200 X91.153 Y101.717 E50.77923
G1 X92.035 Y100.951 E50.81808
G1 X92.668 Y99.968 E50.85697
G1 X92.997 Y98.847 E50.89582
G1 X92.997 Y97.677 E50.93474
G1 X92.668 Y96.556 E50.9736
G1 X92.035 Y95.573 E51.01248
G1 X91.153 Y94.808 E51.05132
G1 X90.089 Y94.322 E51.09022
G1 X88.975 Y94.162 E51.12765
G1 X73.889 Y94.162 E51.62942
G1 X72.775 Y94.322 E51.66685
G1 X71.713 Y94.808 E51.70569
G1 X70.829 Y95.573 E51.74458
G1 X70.197 Y96.556 E51.78345
G1 X69.868 Y97.677 E51.8223
G1 X69.868 Y98.847 E51.86122
G1 X70.197 Y99.968 E51.90007
G1 X70.829 Y100.951 E51.93894
G1 X71.713 Y101.717 E51.97785
G1 X72.775 Y102.202 E52.01668
G1 X73.889 Y102.362 E52.05411
G1 X88.975 Y102.362 E52.55587
G1 X90.089 Y102.202 E52.59331
G0 F6000 X89.975 Y101.814
;TYPE:WALL-OUTER
G1 F1200 X90.934 Y101.377 E52.62836
G1 X91.73 Y100.686 E52.66342
G1 X92.3 Y99.8 E52.69846
G1 X92.597 Y98.789 E52.7335
G1 X92.597 Y97.735 E52.76856
G1 X92.3 Y96.724 E52.80361
G1 X91.73 Y95.838 E52.83865
G1 X90.934 Y95.148 E52.87368
G1 X89.975 Y94.71 E52.90875
G1 X88.946 Y94.562 E52.94333
G1 X73.918 Y94.562 E53.44316
G1 X72.889 Y94.71 E53.47774
